!!!COM: Lightbourne, Robert Charles
!!!CDT: 1909-1995
!!!OTL: National Anthem, Jamaica
!!!ENC: Davis, Matthew J.
!!Vocal Line Only
**kern
*clefG2
*k[]
*C:
*M4/4
=1-
4g
=2
4g
4g
4a
4e
=3
4.g
8f
2f
=4
4a
4a
4b
4f
=5
4.a
8g
2g
=6
4cc
4cc
4b
4g#
=7
4a
4cc
2gn
=8
4a
4a
4g
4e
=9
4c
4e
2d
=10
4e
4e
4b
4e
=11
4a
4b
8cc
8b
4a
=12
4b
4g
4g
4g
=13
8g
8e
4f#
2g
=14
!Chorus
4e
4e
4g
4g
=15
4cc
4cc
4dd
8dd
8dd
=16
8ee
8dd
4cc
4cc
4b
=17
2.cc
8r
16r
16e
=18
4g
2g
8r
16r
16g
=19
4cc
2cc
8r
16r
16dd
=20
8ee
8dd
4cc
4cc
4dd
=21
1cc
==|!
*-
